X: 12320
T: Fairyland, The
R: waltz
M: 3/4
K: Dmajor
cB|A4 F2|A4 F2|A2 G3 G|G4 A2|e4 A2|e3 A fe|d3 e fe|(3ded (3cdc (3BcB|
A4 F2|A2 F2 F2|A2 G2 F2|E4 A2|e4 A2|e2 eA fe|d2 de fe|d4||
AB|c2 B2 A2|G2 F2 E2|D<F- F2 A2|B4 A2|c<e- e2 A2|B4 A2|d<f- f2 a2|B4 AB|
c2 (3BcB A2|(3GAG (3FGF E2|D<F- F2 A2|B6|c<e- e2 g2|B4 c2|d3 e fe|d4||

